!!!COM:	L. van Beethoven
!!!OTL:	Op. 59 No. 2 Movement 1 Viola
**kern	**dynam
*I"Viola	*
*clefC3	*
*k[f#]	*
*e:	*
*M6/8	*
=1	=1
!LO:TX:a:t=Allegro	!
4B' 4e	f
8r	.
4B' 4f#	.
8r	.
=2!|:	=2!|:
2.r	.
=3	=3
2.r	.
=4	=4
(4.F#	pp
4E')	.
8r	.
=5	=5
2.r	.
=6	=6
(<8FnL	pp
8C	.
8AJ	.
4.c)	.
=7	=7
4.G	.
4Fn')	.
8r	.
=8	=8
2.r	.
=9	=9
8f#XL	.
8d#X	.
[8aJ	sf
4.a_	>
=10	=10
2.a]	p
=11	=11
2.r	.
=12	=12
!!linebreak:original
2.D#X	p
=13	=13
4E	<
(8E	.
4F#	[
16cLL	>
16BJJ)	.
=14	=14
(4B	]
8E	<
4F#	[
16cLL	>
16BJJ)	]
=15	=15
8B	.
8r	.
8r	.
8A	.
8r	.
8r	.
=16	=16
16r	.
(16ELL	.
16Fn	.
16G	.
16A	.
16CJJ	.
16DLL	.
16E	.
16F	.
16G	.
16A	.
16BJJ	.
=17	=17
16cLL	.
16B	.
16d	.
16c	.
16B	.
16AJJ	.
16GLL	.
16Fn	.
16E	.
16F	.
16A	.
16cJJ)	.
=18	=18
!LO:TX:b:i:t=cresc.	!
(<8c	.
[4G)	.
(8GL]	.
8B	.
8AJ)	.
=19	=19
4A'	f
8r	.
4d#X' 4f#	.
8r	.
=20	=20
!!linebreak:original
2.r	.
=21	=21
8r	.
8r	.
(8G	p
8AL	.
16cL	.
16B	.
16F#	.
16AJJ)	.
=22	=22
(8AL	.
8G)	.
8G'J	.
(8AL	.
16cL	.
16B	.
16F#	.
16AJJ	.
=23	=23
4G)	.
8r	.
4A	.
8r	.
=24	=24
16r	.
!LO:TX:b:i:t=cresc.	!
(16ELL	.
16Fn	.
16G	.
16A	.
16CJJ	.
16DLL	.
16E	.
16F	.
16G	.
16A	.
16BJJ	.
=25	=25
8c)	.
16r	.
(>16FnLL	.
16G	.
16AJJ	.
16BLL	.
16c	.
16d	.
16e)	.
16fn'	.
16C'JJ	.
=26	=26
4.D	ff
4.D	.
=27	=27
!!linebreak:original
[4.cc	sf
4cc]	.
8cT	.
=28	=28
4.d	sf
4.d	.
=29	=29
[4.g	sf
4g]	.
8GT	.
=30	=30
4.E-X	sf
4.E-	.
=31	=31
!LO:TX:b:i:t=sempre	!
(8.DL	.
16E-XL	.
16C	f
16C#XJJ	.
8D)	.
8r	.
8r	.
=32	=32
16r	.
(16gLL	.
16a	.
16g	.
16f#	.
16e-XJJ	.
16dLL	.
16c#X	.
16d	.
16en	.
16d	.
16eJJ)	.
=33	=33
8d'L	.
8D'	.
8D'J	.
(16DLL	sf
16C#X	.
16D	.
16C#	.
16D	.
16C#JJ)	.
=34	=34
!!linebreak:original
(16DLL	.
16C#X	.
16D	.
16C#	.
16D	.
16C#JJ	.
16DLL	.
16C#	.
16D	.
16C#	.
16D	.
16C#JJ)	.
=35	=35
(16DLL	p
16Cn	.
16D	.
16C	.
16D	.
16CJJ	.
16DLL	.
16C	.
16D	.
16C	.
16D	.
16CJJ)	.
=36	=36
(16DLL	.
16C	.
16D	.
16C	.
16D	.
16CJJ	.
16DLL	.
16C	.
16D	.
16C	.
16D	.
16CJJ)	.
=37	=37
(16DLL	.
16C	.
16D	.
16C	.
16D	.
16CJJ	.
16DLL	.
16C	.
16D	.
16C	.
16D	.
16CJJ)	.
=38	=38
!!linebreak:original
(16DLL	.
16C	.
16D	.
16C	.
16D	.
16CJJ	.
16DLL	.
16C	.
16D	.
16C	.
16F#	.
16DJJ)	.
=39	=39
(16GLL	.
16D	.
16G	.
16D	.
16G	.
16DJJ	.
16GLL	.
16E	.
16G	.
16E	.
16G	.
16EJJ)	.
=40	=40
(16F#LL	.
16A	.
16D	.
16F#	.
16A	.
16F#JJ	.
4.G)	.
=41	=41
4r	.
8r	.
(16eLL	.
16c	.
16e	.
16c	.
16e	.
16cJJ)	.
=42	=42
!LO:TX:b:i:t=cresc.	!
(16aLL	.
16f#	.
16a	.
16f#	.
16a	.
16f#JJ	.
16aLL	.
16f#	.
16a	.
16f#	.
16a	.
16f#JJ)	.
=43	=43
!!linebreak:original
(4.b	p
!LO:TX:b:i:t=dolce	!
8eL	.
16ccL	.
16b	.
16a	.
16gJJ)	.
=44	=44
[4.f#	.
(8f#L]	.
8d	.
16eL	.
16f#JJ)	.
=45	=45
(16gLL	.
16d	.
16g	.
16f#	.
16e	.
16d#XJJ	.
16eLL	.
16fn	.
16e	.
16dn	.
16c	.
16BJJ)	.
=46	=46
(16ALL	.
16B	.
16c	.
16B	.
16A	.
16GJJ	.
16F#LL)	.
(16F#	.
16E	.
16F#	.
16G	.
16AJJ)	.
=47	=47
4.B	.
[4.A	.
=48	=48
!LO:TX:b:i:t=cresc.	!
8AL]	.
8B	.
8BJ	.
(<8BL	.
8d)	.
8c'J	.
=49	=49
2.r	.
=50	=50
!!linebreak:original
8.cc#XL	sf
16dd'L	.
16ee'	.
16dd'JJ	.
8.cc#L	.
16dd'L	sf
16ee'	.
16ee'JJ	.
=51	=51
(4ee	>
[8dd	]
8ddL]	p
!LO:TX:b:i:t=dolce	!
8ccn	.
8bJ)	.
=52	=52
(16bLL	.
16aJ)	.
[8g'	.
8g'J]	.
(4g	.
8f#)	.
=53	=53
8.cL	f
16d'L	.
16d#X'	.
16d#'JJ	.
8.d#L	sf
16d#'L	.
16e'	.
16dn'JJ	.
=54	=54
8.c#XL	sf
16c#'L	.
16d'	.
16cn'JJ	.
8.BL	sf
16B'L	.
16e'	.
16e'JJ	.
=55	=55
8d'	.
(8dL	.
[8ddJ)	.
16ddLL]	>
16ee	.
16dd	.
16cc	.
16b	.
16aJJ	.
=56	=56
!!linebreak:original
(4.g#X	]
4a	p
8f#)	.
=57	=57
8gn	.
8r	.
(8Fn	.
4.d)	.
=58	=58
4B	.
[8A	pp
4A]	.
[8A	.
=59	=59
8A]	.
[8GL	.
8G'J]	.
[8G#XL	.
8G#'J]	.
[8A	.
=60	=60
8AL]	.
[8B-X	.
8B-J]	.
[8BnL	.
8B]	.
[8B-XJ	.
=61	=61
!LO:TX:b:i:t=cresc.	!
8B-]	.
[8B-XL	.
8B-J]	.
[8B-L	.
8B-J]	.
[8B-	.
=62	=62
8B-]	.
[8c#XL	.
8c#J]	.
[8c#L	.
8c#J]	.
[8c#	.
=63	=63
!!linebreak:original
8c#]	.
[8dL	.
!LO:TX:b:i:t=piu cresc.	!
8dJ]	.
[8dL	.
8dJ]	.
[8d	.
=64	=64
8d]	.
[8dL [8a	f
8dJ] 8a]	.
[8dL [8a	.
8dJ] 8a]	.
8d' 8a	.
=65	=65
16BLL	sf
(16d	.
16B)	.
(16d	.
16B)	.
(16dJJ	.
16BLL)	.
(16d	.
16B)	.
(16d	.
16B)	.
(16dJJ	.
=66	=66
16cLL)	sf
(16d	.
16c)	.
(16d	.
16c)	.
(16dJJ	.
16cLL)	.
(16d	.
16c)	.
(16d	.
16c)	.
16dJJ	.
=67	=67
(16ddLL	sf
16b)	.
16g'	.
16d'	.
16B'	.
16G'JJ	.
4.D	.
=68	=68
!!linebreak:original
(16ddLL	sf
16cc)	.
16a'	.
16d'	.
16c'	.
16A'JJ	.
4.D	.
=69	=69
16G'LL	.
(16B	.
16G)	.
(16B	.
16G)	.
(16BJJ	.
16ALL)	.
(16B	.
16A)	.
(16B	.
16A)	.
16BJJ	.
=70	=70
4G'	f
8r	.
4F#' 4B	.
8r	.
=71:|!	=71:|!
16GLL	.
(16B-X	.
16G)	.
(16B-	.
16G)	.
(16B-JJ	.
16A-XLL)	.
(16B-	.
16A-)	.
(16B-	.
16A-)	.
16B-JJ	.
=72	=72
4E-X'	ff
8r	.
4D'	.
8r	.
=73	=73
2.r	.
=74!|:	=74!|:
!!linebreak:original
4G-X'	p
8r	.
4Fn'	.
8r	.
=75	=75
2.r	.
=76	=76
4F#X'	pp
8r	.
4c#X'	.
8r	.
=77	=77
2.r	.
=78	=78
4F#'	ff
8r	.
4F#'	.
8r	.
=79	=79
2.r	.
=80	=80
4r	.
8r	.
4r	.
(<8B	pp
=81	=81
4A#X	.
8c#X	.
4B)	.
8r	.
=82	=82
2.r	.
=83	=83
4r	.
8r	.
4r	.
(8cn	.
=84	=84
4B	.
8d	.
[4.c)	.
=85	=85
2.c_	.
=86	=86
(4.c]	.
[4.B-X)	.
=87	=87
2.B-_	.
=88	=88
4.B-]	.
[4.c#	.
=89	=89
4.c	.
(8A-XL	.
8E-X	.
[8cJ)	.
=90	=90
(8cL]	.
8An	.
8e-XJ)	.
(8cL	.
8A	.
8e-J)	.
=91	=91
4r	.
8r	.
(8cL	.
8Fn	.
8e-XJ)	.
=92	=92
4r	.
(>8d-X	.
8cL	.
8Fn	.
8e-XJ)	.
=93	=93
8d-XL	pp
8r	.
8FnJ	.
8r	.
8F	.
8r	.
=94	=94
8FnL	.
8r	.
8FJ	.
8r	.
8F	.
8r	.
=95	=95
!LO:TX:b:i:t=cresc.	!
8G-XL	.
8r	.
8G-J	.
8r	.
8G-	.
8r	.
=96	=96
8G-XL	.
8r	.
8G-J	.
8r	.
8G-	.
8r	.
=97	=97
8gn	.
4g	.
4g	.
[8g	.
=98	=98
8g]	.
4e	f
4e	.
8e	.
=99	=99
4d	.
8rB	p
(>8c#XL	.
8F#	.
8eJ)	.
=100	=100
8r	.
8r	.
(>8d	.
8c#XL	.
8F#	.
8eJ)	.
=101	=101
8dL	pp
8r	.
8f#J	.
8r	.
8f#	.
8r	.
=102	=102
8f#L	.
8r	.
8f#J	.
8r	.
8f#	.
8r	.
=103	=103
8a	.
!LO:TX:b:i:t=cresc.	!
4a	.
4a	.
[8a	.
=104	=104
8a]	.
4a	.
4a	.
(8a	.
=105	=105
8g)	.
4g	.
4g	.
(8g	.
=106	=106
8d) 8fn	.
4d 4f	.
4d 4f	.
[8d [8f	.
=107	=107
!LO:TX:b:i:t=il	!
8d] 8f]	.
4d 4fn	f
4d 4f	.
8d 8f	.
=108	=108
!LO:TX:b:i:t=piu	!
8G 8d	.
4G 4d	f
4G 4d	.
8G 8d	.
=109	=109
4C' 4c	ff
8r	.
8G' 8g	.
16r	.
16eeLL	.
!LO:TX:b:i:t=sempre	!
16dd	.
16eeJJ	.
=110	=110
16ddLL	ff
16cc	.
16b	.
16cc	.
16b	.
16aJJ	.
16gLL	.
16a	.
16g	.
16fn	.
16e	.
16fJJ	.
=111	=111
16eLL	.
16d	.
16e	.
16g	.
16fn	.
16eJJ	.
16dLL	.
16e	.
16f	.
16e	.
16d	.
16eJJ	.
=112	=112
16dLL	.
16c	.
16B	.
16c	.
16B	.
16AJJ	.
16GLL	.
16A	.
16G	.
16Fn	.
16E	.
16DJJ	.
=113	=113
4C' 4A	.
8r	.
8e'	.
16r	.
16ccLL	.
16b	.
16ccJJ	.
=114	=114
16bLL	.
16a	.
16g	.
16a	.
16g	.
16fnJJ	.
16eLL	.
16f	.
16e	.
16d	.
16c	.
16dJJ	.
=115	=115
16cLL	.
16B	.
16c	.
16e	.
16d	.
16cJJ	.
16BLL	.
16c	.
16B	.
16A	.
16G#X	.
16AJJ	.
=116	=116
16GnLL	.
16Fn	.
16E	.
16F	.
16E	.
16DJJ	.
16CLL	.
16D	.
16E	.
16D	.
16C	.
16DJJ	.
=117	=117
(4.C	pp
4D	.
8Fn)	.
=118	=118
(4E	.
8C	.
4D	.
16FnLL	.
16EJJ)	.
=119	=119
4E	.
8r	.
8A	.
16r	.
!LO:TX:b:i:t=sempre	!
(>16c#XLL	.
16d	.
16eJJ	.
=120	=120
16fnLL	p
16A	.
16B-X	.
16cn	.
16d	.
16FnJJ	.
16GLL	.
16A	.
16B-X	.
16c	.
16d	.
16e-XJJ	.
=121	=121
16fnLL	.
16en	.
16g	.
16f	.
16e-X	.
16dJJ	.
16cLL	.
16B-X	.
16A	.
16B-	.
16d	.
16fJJ)	.
=122	=122
(8fn	.
[4c)	.
(8cL]	.
8en	.
8eJ)	.
=123	=123
!LO:TX:b:i:t=poco ritard	!
(4e	<
8d#X	.
4.dn)	>
=124	=124
(4c	<
8d#X	.
4.dn)	>
=125	=125
!LO:TX:a:t=a tempo	!
4c	]
8r	.
8.r	.
(16c#XLL	.
16d	.
16eJJ	.
=126	=126
16fnLL)	.
(16A	.
16B-X	.
16cn	.
16d	.
16FnJJ	.
16GLL	.
16A	.
16B-	.
16F	.
16G	.
16AJJ	.
=127	=127
!LO:TX:b:i:t=cresc.	!
16B-XLL	.
16Fn	.
16G	.
16A	.
16B-	.
16FJJ	.
16GLL	.
16A	.
16B-	.
16F	.
16G	.
16AJJ	.
=128	=128
16B-XLL	.
16Fn	.
16G	.
16A	.
16B-	.
16FJJ	.
16GLL	.
16A	.
16B-	.
16F)	.
16G	.
16AJJ	.
=129	=129
16B-XLL	ff
16Fn	.
16F	.
16F	.
16F	.
16FJJ	.
16FLL	.
16F	.
16F	.
16F	.
16F	.
16FJJ	.
=130	=130
[4.dd	sf
4dd]	.
8dT	.
=131	=131
16cLL	.
16E 16G	.
16E 16G	.
16E 16G	.
16E 16G	.
16EJJ 16G	.
16ELL 16G	.
16E 16G	.
16E 16G	.
16E 16G	.
16E 16G	.
16EJJ 16G	.
=132	=132
[4.ee	sf
4ee]	.
8eT	.
=133	=133
16dLL	.
16Fn 16A	.
16F 16A	.
16F 16A	.
16F 16A	.
16FJJ 16A	.
16FLL 16A	.
16F 16A	.
16F 16A	.
16F 16A	.
16F 16A	.
16FJJ 16A	.
=134	=134
[4.f#X	sf
4f#]	.
8f#t	.
=135	=135
(8e	ff
[4e)	.
4e]	sf
(8dT	.
16qqc/LL	.
16qqd/JJ	.
=136	=136
8c)	.
8r	.
(8Bt	.
16qqA/LL	.
16qqB/JJ	.
8A)	.
8r	.
(8GT	.
16qqF#X/LL	.
16qqG/JJ	.
=137	=137
[4.F#)	.
4F#]	sf
(8ET	.
16qqD#X/LL	.
16qqE/JJ	.
=138	=138
8D#X)	.
8r	.
(8D#t	.
16qqC#X/LL	.
16qqD#X/JJ	.
8E)	.
8r	.
(8A#Xt	.
16qG##X/LL	.
16qqA#X/JJ	.
=139	=139
8B)	.
8r	.
(<8Bt	.
16qqAn/LL	.
16qqB/JJ	.
8cn)	.
8r	.
(8F#t	.
16qqE/LL	.
16qqF#X/JJ	.
=140	=140
8G)	.
8r	.
(8GT	.
16qqF#/LL	.
16qqG/JJ	.
8A)	.
8r	.
(8D#Xt	.
16qqC#X/LL	.
16qqD#X/JJ	.
=141	=141
4E)	.
8r	ff
(16ALL	.
16c	.
16B	.
16A	.
16G#X	.
16AJJ)	.
=142	=142
4r	.
8r	.
16r	.
(16BLL	p
16c#X	.
16d#X	.
16e	.
16f#JJ)	.
=143	=143
4gn	ff
8r	.
(16ALL	.
16cn	.
16B	.
16A	.
16G#X	.
16AJJ)	.
=144	=144
2.r	.
=145	=145
2.r	.
=146	=146
(4.F#	pp
4E')	.
8r	.
=147	=147
2.r	.
=148	=148
(<8FnL	pp
8C	.
8AJ	.
4.c	.
=149	=149
4.G	.
4Fn')	.
8r	.
=150	=150
2.r	.
=151	=151
2.r	.
=152	=152
2.r	.
=153	=153
(8d#XL	.
8B	.
[8f#J)	sf
(4f#]	.
8e)	>
=154	=154
2.d#X	p
=155	=155
4e	.
(8E	<
4F#	>
16cLL	.
16BJJ)	]
=156	=156
(4B	.
8E	<
!	!LO:DY:a
4F#	>
16cLL	.
16BJJ)	]
=157	=157
!LO:TX:b:i:t=sempre	!
4B	]
8r	.
4A	p
8r	.
=158	=158
4r	.
8r	.
8r	.
16r	.
(16G#XLL	.
16A	.
16BJJ	.
=159	=159
16cLL)	.
(16E	.
16F#X	.
16G#X	.
16AJJ)	.
16r	.
8r	.
16r	.
(16ELL	.
16Fn	.
16GnJJ	.
=160	=160
16A')	.
16r	.
8r	.
16r	.
(16C	.
16DLL	.
16E	.
16Fn'JJ)	.
16r	.
8r	.
=161	=161
16r	.
!LO:TX:b:i:t=cresc.	!
(16CLL	.
16D	.
16E	.
16Fn	.
16CJJ	.
16DLL	.
16E	.
16F	.
16C	.
16D	.
16EJJ)	.
=162	=162
(16FnLL	f
16c	.
16d	.
16eJJ)	.
16fn'LL	.
16f'JJ	.
16fLL	.
16f	.
16f	.
16f	.
16f	.
16fJJ	.
=163	=163
[4.fn	ff
4f]	.
(8FnT	.
=164	=164
4E)	.
8r	.
4r	.
8r	.
=165	=165
[4.d	sf
4d]	.
(8DT	.
=166	=166
4C)	.
8r	.
4r	.
8r	.
=167	=167
(16D#XLL	.
16F#X	.
16B	.
16F#	.
16d#X	.
16BJJ	.
16f#LL	.
16d#	.
16b	.
16f#)	.
16dd#X'	.
16dd#'JJ	.
=168	=168
[4.ee	ff
4ee]	.
(8gT	.
=169	=169
8f#XL)	.
16r	.
(16cL	.
16A	.
16A#XJJ)	.
16B'LL	.
(16F#	.
16B	.
16AnJ	.
8GJ)	.
=170	=170
16F#'	.
(16eLL	.
16f#	.
16e	.
16d#X	.
16cJJ	.
16BLL	.
16A#X	.
16B	.
16c#X	.
16B	.
16c#JJ)	.
=171	=171
8B'L	.
8B'	.
8B'J	.
(16BLL	sf
16A#X	.
16B	.
16A#	.
16B	.
16A#JJ)	.
=172	=172
(16BLL	>
16A#X	.
16B	.
16A#	.
16B	.
16A#JJ	.
16BLL	.
16A#	.
16B	.
16A#	.
16B	.
16A#JJ)	.
=173	=173
(16BLL	p
16An	.
16B	.
16A	.
16B	.
16AJJ	.
16BLL	.
16A	.
16B	.
16A	.
16B	.
16AJJ)	.
=174	=174
(16BLL	.
16A	.
16B	.
16A	.
16B	.
16AJJ	.
16BLL	.
16A	.
16B	.
16A	.
16B	.
16AJJ)	.
=175	=175
(16BLL	.
16A	.
16B	.
16A	.
16B	.
16AJJ	.
16BLL	.
16A	.
16B	.
16A	.
16B	.
16AJJ)	.
=176	=176
(16BLL	.
16A	.
16B	.
16A	.
16B	.
16AJJ	.
16BLL	.
16A	.
16B	.
16A	.
16B	.
16AJJ)	.
=177	=177
(8.BL	.
16d#XL	.
16c#X	.
16eJJ	.
8.d#L	.
16f#XL	.
16e#X	.
16g#XJJ)	.
=178	=178
4f#X	.
8r	.
4r	.
8r	.
=179	=179
(8.d#XL	.
16f#L	.
16e#X	.
16g#XJJ	.
8.f#L	.
16aL	.
16g#	.
16bJJ)	.
=180	=180
4a	.
8r	.
8r	.
8r	.
(16F#LL	.
16D#XJJ)	.
=181	=181
(16BLL	.
16En	.
16B	.
16E	.
16B	.
16EJJ)	.
(16c#XLL	.
16E	.
16c#	.
16E	.
16c#	.
16EJJ)	.
=182	=182
(16D#XLL	.
16F#	.
16D#	.
16F#	.
16D#	.
16F#JJ)	.
8G#X	.
8r	.
8r	.
=183	=183
4r	.
8r	.
(16c#XLL	.
16A	.
16c#	.
16A	.
16c#	.
16AJJ)	.
=184	=184
!LO:TX:b:i:t=cresc.	!
(16f#LL	.
16d#X	.
16f#	.
16d#	.
16f#	.
16d#JJ	.
16f#LL	.
16d#	.
16f#	.
16d#	.
16f#	.
16d#JJ)	.
=185	=185
(4.e	p
!LO:TX:b:i:t=dolce	!
8c#XL)	.
(16aL	.
16g#X	.
16f#	.
16eJJ)	.
=186	=186
[4.d#X	.
(8d#L]	.
8BJ	.
16c#XLL	.
16d#JJ)	.
=187	=187
(16eLL	.
16B	.
16e	.
16d#X	.
16c	.
16B#XJJ)	.
(8.cL	.
16BnL	.
16A	.
16G#XJJ)	.
=188	=188
(16F#LL	.
16G#X	.
16A	.
16G#	.
16F#	.
16EJJ)	.
(16D#XLL	.
16B	.
16A#X	.
16B	.
16B	.
16BJJ)	.
=189	=189
4.E	.
[4.F#	.
=190	=190
!LO:TX:b:i:t=cresc.	!
(8F#L]	.
8G#X)	.
8G#J	.
(8G#L	.
8B)	.
8An'J	.
=191	=191
2.r	.
=192	=192
8.a#XL	sf
16b'L	.
16cc#X'	.
16b'JJ	.
8.a#L	.
16b'L	sf
16cc#'	.
16cc#'JJ	.
=193	=193
(4cc#X	>
[8ccn)	.
(8ccL]	.
8b)	p
!LO:TX:b:i:t=dolce	!
[8anJ	.
=194	=194
(8aL]	.
8g#X)	.
8f#'J	.
(4e	.
16g#LL	.
16f#JJ)	.
=195	=195
8.AL	f
16B'L	.
16c'	.
16c'JJ	.
8.cL	.
16cL	sf
16c#X	.
16BJJ	.
=196	=196
8.A#XL	sf
16A#L	.
16B	.
16AnJJ	.
8.G#XL	sf
16g#XL	.
16a	.
16gnJJ	.
=197	=197
8g#XL	.
8B	.
[8bJ	.
(16bLL]	sf
16cc#X	>
16b	.
16a	.
16g#X	.
16f#JJ)	.
=198	=198
(4.e#X	]
4f#	p
8d#X)	.
=199	=199
8en	.
8r	.
8r	.
(8Dn	.
4B)	.
=200	=200
4G#X	pp
[8F#	.
4F#]	.
[8F#	.
=201	=201
8F#]	.
[8EL	.
8EJ]	.
[8E#XL	.
8E#J]	.
[8F#	.
=202	=202
8F#]	.
[8GnL	.
8GJ]	.
[8GL	.
8GJ]	.
[8G	.
=203	=203
8G]	.
!LO:TX:b:i:t=cresc.	!
[8GL	.
8GJ]	.
[8GL	.
8GJ]	.
[8G	.
=204	=204
8G]	.
[8A#XL	.
8A#J]	.
[8A#L	.
8A#J]	.
[8A#	.
=205	=205
!LO:TX:b:i:t=piu	!
8A#]	.
!LO:TX:b:i:t=cresc.	!
[8BL [8e	.
8BJ] 8e]	.
[8BL [8e	.
8BJ] 8e]	.
[8B [8e	.
=206	=206
8B] 8e]	.
[8BL [8an	f
8BJ] 8a]	.
[8BL [8a	.
8BJ] 8a]	.
8B 8a	.
=207	=207
16G#XLL	.
(16B	sf
16G#)	.
(16B	.
16G#)	.
(16BJJ	.
16G#LL)	.
(16B	.
16G#)	.
(16B	.
16G#)	.
(16BJJ	.
=208	=208
16ALL)	sf
(16B	.
16A)	.
(16B	.
16A)	.
(16BJJ	.
16ALL)	.
(16B	.
16A)	.
(16B	.
16A)	.
16BJJ	.
=209	=209
(16bLL	sf
16g#X)	.
16e'	.
16B'JJ	.
16G#X'LL	.
16B'JJ	.
4.E	.
=210	=210
(16bLL	sf
16a)	.
16f#'	.
16B'JJ	.
16A'LL	.
16B'JJ	.
4.F#	.
=211	=211
!!linebreak:original
4E	.
8r	.
4fn	.
8r	p
=212	=212
4r	.
8r	.
4r	.
(8Fn	p
=213	=213
4G')	.
8r	f
4Fn'	.
8r	.
=214	=214
2.r	.
=215:|!	=215:|!
16ELL	.
(16G	.
16E)	.
(16G	.
16E)	.
(16GJJ	.
16DLL)	.
(16G	.
16D)	.
(16G	.
16D)	.
16GJJ	.
=216	=216
4C'	ff
8r	.
4B' 4d	.
8r	.
=217	=217
2.r	.
=218	=218
!!linebreak:original
4c	p
8r	.
4d	.
8r	.
=219	=219
2.r	.
=220	=220
(4c'	pp
8r	.
4d-X')	.
8r	.
=221	=221
2.r	.
=222	=222
4D#X	f
8r	.
[4.D#	f
=223	=223
2.D#_	>
=224	=224
4.D#]	]
(8G#XL	p
8D#X	.
[8BJ)	.
=225	=225
!LO:TX:b:i:t=piu	!
2.B_	.
=226	=226
4.B]	p
(8G#XL	.
8D#X	.
[8BJ)	.
=227	=227
2.B_	.
=228	=228
4.B]	.
(<8AL	.
8E	.
[8cJ	.
=229	=229
4.c])	.
(8FnL	.
8D	.
8AJ	.
=230	=230
4.G)	.
(8EL	.
8C	.
8GJ	.
=231	=231
4.Fn)	.
(8BL	.
8Fn	.
[8dJ)	.
=232	=232
(8dL]	.
8E	.
8cJ	.
8EL	.
8c	.
8EJ)	.
=233	=233
(8BL	.
8E	.
8BJ	.
8F#XL	.
8A	.
8F#J)	.
=234	=234
8AL	.
8r	pp
8AJ	.
8r	.
8A	.
8r	.
=235	=235
8AL	.
8r	.
8AJ	.
8r	.
8A	.
8r	.
=236	=236
8F#L 8A	.
!LO:TX:b:i:t=cresc.	!
8r	.
8F#J 8A	.
8r	.
8F# 8A	.
8r	.
=237	=237
8F#L 8A	.
8r	.
8F#J 8A	.
8r	.
8F# 8A	.
8r	.
=238	=238
8F#L 8A	.
8r	.
8F#J 8A	.
8r	.
8F# 8A	.
8r	.
=239	=239
8F#L 8A	.
8r	ff
8F#J 8A	.
8r	.
8F# 8A	.
8r	.
=240	=240
8F#L 8A	.
8r	.
8F#J 8A	.
8r	.
8F# 8A	.
8r	.
=241	=241
8F#L 8A	.
8r	.
8F#J 8A	.
8r	.
8F# 8A	.
8r	.
=242	=242
8F#L 8A	.
8r	.
8F#J 8A	.
8r	.
8F#L 8A	.
[8F#J [8A	.
=243	=243
4.F#] 4.A]	.
[4.F# [4.A	ff
=244	=244
4.F#] 4.A]	.
[4.F# [4.A	ff
=245	=245
2.F#_ 2.A_	>
=246	=246
8F#] 8A]	]
8r	p
8r	.
4r	.
8r	.
=247	=247
(4.e	pp
4f#	.
16ccLL)	.
16bJJ	.
=248	=248
(4b	.
8e	.
4f#	.
16ccLL)	.
16bJJ	.
=249	=249
4b	.
8r	.
4a	.
8r	.
=250	=250
2.r	.
=251	=251
4r	.
8r	.
16r	.
(16ALL	pp
16c	.
16A	.
16c	.
16AJJ)	.
=252	=252
!LO:TX:b:i:t=cresc.	!
16r	.
(16GLL	.
16B	.
16G	.
16B	.
16GJJ)	.
16r	.
(16F#XLL	.
16B	.
16F#	.
16B	.
16F#JJ)	.
=253	=253
16r	.
(16GLL	.
16B	.
16G	.
16B	.
16GJJ)	.
16r	.
(16ALL	.
16c	.
16A	.
16c	.
16AJJ)	.
=254	=254
16r	.
(16GLL	.
16B	.
16G	.
16B	.
16GJJ)	.
16r	.
(16F#XLL	.
16B	.
16F#	.
16B	.
16F#JJ)	.
=255	=255
16r	.
(16eLL	.
16g	.
16e	.
16g	.
16eJJ)	.
16r	.
(16cLL	.
16fn	.
16c	.
16f	.
16cJJ)	.
=256	=256
16r	.
(16BLL	.
16e	.
16B	.
16e	.
16BJJ)	.
(16f#XLL	f
16B	.
16f#	.
16B	.
16f#	.
16BJJ)	.
=257	=257
(8eL	ff
8B	.
8gJ)	.
[4.b	.
=258	=258
(16bLL]	.
16cc	.
16a	.
16f#	.
16d#X	.
16BJJ)	.
!LO:TX:b:i:t=dim.	!
8e	.
(4A	.
=259	=259
8G)	.
4A	p
8G	.
4A	.
=260	=260
4G)	.
8r	.
4G	.
8r	.
=261	=261
4E	.
8r	.
4r	.
8r	.
=262	=262
!!linebreak:original
*k[f#c#g#d#]	*
*E:	*
*M4/4	*
*met(c)	*
!LO:TX:a:B:t=Molto Adagio	!
1r	.
=263	=263
(<2F#	p
2c#)	.
=264	=264
(2F#	.
4E	.
4F#)	.
=265	=265
(4G#	.
4A#X	.
4B)	.
4r	.
=266	=266
2r	.
[2An	.
=267	=267
!LO:TX:b:i:t=cresc.	!
(2A]	.
2G#)	.
=268	=268
2E	f
2D#	>
=269	=269
(4E	]
4B	p
4A	.
4F#	.
=270	=270
2E)	.
2D#	.
=271	=271
2F#	.
2E)	.
=272	=272
(2A	.
4G#	.
8.BL	.
16AJk)	.
=273	=273
!!linebreak:original
(2G#	.
4F#)	.
4r	.
=274	=274
(2B	.
2A	.
=275	=275
!LO:TX:b:i:t=cresc.	!
2F#	.
2G#)	.
=276	=276
2E	.
4..F#	f
16G#	>
=277	=277
4E	p
4r	.
2r	.
=278	=278
1r	.
=279	=279
!LO:TX:b:i:t=espress.	!
(2E	.
2G#)	.
=280	=280
1B	.
=281	=281
(4B	.
8.g#L	.
16eJk	.
4c#	.
8.eL	.
16c#Jk)	.
=282	=282
(2G#	.
2F#)	.
=283	=283
!LO:TX:b:i:t=cresc.	!
2E	.
2gn	.
=284	=284
4f#	f
8.F#L	.
16F#Jk	p
8.F#L	.
16E#Xk	.
8.E#	.
16E#Jk	.
=285	=285
!!linebreak:original
4F#X	.
8.A#XL	.
16A#Jk	.
8.BL	.
16Bk	.
8.c#	.
16c#Jk	.
=286	=286
!LO:TX:b:i:t=cresc.	!
(4c#	.
4f#)	.
(4f#	.
4g#)	.
=287	=287
!LO:TX:b:i:t=piu cresc.	!
4f#	.
8.F#L	.
16G#Jk	.
8.A#XL	.
16Bk	.
8.c#	.
16A#Jk	.
=288	=288
4..B	.
16F#	p
8..D#L	.
32D#kk	.
8..D#	.
32D#Jkk	.
=289	=289
(4..B	.
16c#	.
2d#)	.
=290	=290
(4.e	>
8E)	]
4F#	.
4F#	.
=291	=291
4..B	f
16F#	.
8..F#L	.
32F#kk	.
8..F#	.
32F#Jkk	.
=292	=292
!!linebreak:original
1F#	.
=293	=293
(8.EL	p
16F#k	.
8G#	.
8BJ)	.
!LO:TX:b:i:t=cresc.	!
(4B	.
4d#X)	.
=294	=294
4d#	.
8.f#L	p
16F#Jk	.
!LO:TX:b:i:t=mancando	!
4F#	.
8.f#L	.
16F#Jk	.
=295	=295
4F#	.
8.f#L	.
16F#Jk	.
4F#	.
8.f#L	.
16F#Jk	.
=296	=296
4F#	.
8.f#L	.
16F#Jk	.
4F#	.
8.f#L	.
16F#Jk	.
=297	=297
4F#	.
!LO:TX:b:i:t=cresc.	!
8.f#L	.
16F#Jk	.
4F#	.
8.f#L	.
16F#Jk	.
=298	=298
(2d#	.
2A#X	p
=299	=299
2B	.
2F#	.
=300	=300
!!linebreak:original
2G#	.
2D#)	.
=301	=301
(<4A#X	.
12BL	.
12A#	.
12G#J	.
4F#	.
[4c#)	.
=302	=302
4c#]	.
(4g#	.
!LO:TX:b:i:t=cresc.	!
4a#X	.
4cc#	.
=303	=303
4b	.
4g#)	.
(2d# 2f#	f
=304	=304
[1d#)	>
=305	=305
1d#]	]
=306	=306
[1c#	p
=307	=307
1c#_	.
=308	=308
4c#]	.
4r	.
2r	.
=309	=309
12D#X'L	.
12D#'	.
12D#'J	.
8D#'	.
8r	.
12D#'L	.
12D#'	.
12D#'J	.
8D#'	.
8r	.
=310	=310
!!linebreak:original
12E'L	.
12E'	.
12E'J	.
8E'	.
8r	.
12E'L	.
12E'	.
12E'J	.
8E'	.
8r	.
=311	=311
12D#'L	.
12D#'	.
12D#'J	.
8D#'	.
8r	.
12D#'L	.
12D#'	.
12D#'J	.
8D#'	.
8r	.
=312	=312
12E'L	.
12E'	.
12E'J	.
8E'	.
8r	.
12E'L	.
12E'	.
12E'J	.
8E'	.
8r	.
=313	=313
(2f#	.
2e	.
=314	=314
2gn	.
2f#)	.
=315	=315
(2a#X	.
4b	.
4g#X)	.
=316	=316
!!linebreak:original
(2.f#	.
4e)	pp
=317	=317
(2dn	pp
!LO:TX:b:i:t=cresc.	!
2B)	.
=318	=318
2A)	.
2F# 2A	.
=319	=319
2F#	ff
4..Gn	f
16A	>
=320	=320
4F#	]
4r	p
2r	.
=321	=321
1r	.
=322	=322
([4Dn	.
12DL]	.
12A	.
12FnJ)	.
([4D	.
12DL]	.
12F	.
12DJ)	.
=323	=323
[1E-X	.
=324	=324
(12E-L]	pp
12Dn)	.
12DJ	.
(12DL	.
12En)	.
12E'J	.
(12EL	.
12Fn)	.
12F'J	.
12FL	.
12F	.
12FJ	.
=325	=325
!!linebreak:original
(12FnL	.
12E-X)	.
12E-'J	.
(12E-L	.
12F#X)	.
12F#'J	.
(12F#L	.
12Gn)	.
12G'J	.
12GL	.
12G	.
12GJ	.
=326	=326
(12GnL	.
12Fn)	.
12F'J	.
(12FL	.
12G#X)	.
12G#'J	.
(12G#L	.
12A)	.
12A'J	.
12AL	.
12A	.
12AJ	.
=327	=327
!LO:TX:b:i:t=cresc.	!
(12AL	.
12A#X)	.
12A#'J	.
12A#L	.
12A#	.
12A#J	.
(12A#L	.
12B)	.
12B'J	.
12BL	.
12B	.
12B'J	.
=328	=328
(12BL	.
12cn)	.
12c'J	.
12cL	.
12c	.
12cJ	.
(12cL	.
12c#X)	.
12c#'J	.
(12c#L	.
12dn)	.
12d'J	.
=329	=329
!!linebreak:original
!LO:TX:b:i:t=piu cresc.	!
(12dnL	.
12e#X)	.
12dJ 12b	.
12dL 12b	.
12d 12b	.
12dJ 12b	.
12dL 12b	f
12d 12b	.
12dJ 12b	.
12dL 12b	.
12d 12b	.
12dJ 12b	.
=330	=330
12c#L	ff
12c#	.
12c#J	.
12c#L	.
12c#	.
12c#J	.
12c#L	.
12c#	.
12c#J	.
12c#L	.
12c#	.
12c#J	.
=331	=331
12dnL	p
12B	.
12BJ	.
8B	.
8r	.
[4E#X	.
12E#L]	.
12G#	.
12c#J	.
=332	=332
12C#L	f
12C#	.
12C#J	.
12C#L	.
12C#	.
12C#J	.
12C#L	.
12C#	.
12C#J	.
12C#L	.
12C#	.
12C#J	.
=333	=333
!!linebreak:original
12DnL	p
12B	.
12BJ	.
8B	.
8r	.
[4E#X	.
12E#L]	.
12G#	.
12c#J	.
=334	=334
[4F#	.
12F#L]	.
12A	.
12cnJ	.
[4D#X	.
12D#L]	.
12F#	.
12BJ	.
=335	=335
12r	.
(12AL	.
12GnJ	.
[4F#)	.
12F#L]	.
(12F#	.
12EnJ	.
[4D#)	.
=336	=336
12D#L]	.
(12A	.
12GnJ	.
[4F#)	.
12F#L]	.
(12F#	.
12EJ	.
12D#L)	.
12D#	.
12D#J	.
=337	=337
1E	.
=338	=338
!!linebreak:original
8F#	p
8r	.
4r	.
12r	.
12F#'L	.
12E#X'J	.
(12F#L	.
12D#	.
12EnJ)	.
=339	=339
1E	f
=340	=340
(>4F#'	p
4r	.
4f#')	.
4r	.
=341	=341
(>4B'	.
4r	.
4f#')	.
4r	.
=342	=342
!LO:TX:b:i:t=dim.	!
(<4B'	.
4r	.
4cn')	.
4r	.
=343	=343
(<4B'	.
4r	.
4A#X')	.
4r	.
=344	=344
4F#	.
4r	pp
2r	.
=345	=345
!LO:TX:b:i:t=cresc.	!
2e	.
2d#	.
=346	=346
4g#X	]
8r	p
(8G#	.
2F#)	.
=347	=347
!!linebreak:original
2G#	.
2C#	.
=348	=348
(4A	.
4F#	.
4G#	.
4c#)	.
=349	=349
[2B	.
8B]	.
8r	.
4r	.
=350	=350
4r	.
(4G#	.
4F#	.
4A)	.
=351	=351
!LO:TX:b:i:t=cresc.	!
2G#	.
2G#	.
=352	=352
(<4c#	.
4A#X)	f
[4An	.
8.AL]	>
16BJk	.
=353	=353
4G#	]
4r	p
2r	.
=354	=354
1r	.
=355	=355
(2E	.
!LO:TX:b:i:t=espress.	!
2G#X	.
=356	=356
2B	.
2d#)	.
=357	=357
(2.e	.
8.dnL)	.
16c#Jk	.
=358	=358
!!linebreak:original
(8.BL	.
16Ak	.
8.G#	.
16F#Jk	.
4E	.
4Dn)	.
=359	=359
1C#	.
=360	=360
!LO:TX:a:i:t=staccato	!
!LO:TX:b:i:t=cresc.	!
8C#'L	.
16r	.
16A'k	.
8F#'	.
16r	.
16A'Jk	.
8F#'L	.
16r	.
16A'k	.
8F#'	.
16r	.
16A'Jk	.
=361	=361
4D#	.
8.D#L	f
16D#Jk	p
8.EL	.
16A#Xk	.
8.A#	.
16A#Jk	.
=362	=362
!LO:TX:b:i:t=cresc.	!
4G#	.
8.D#L	.
16D#Jk	.
8.EL	.
16Ank	.
8.A	.
16AJk	.
=363	=363
4A	fp
8.f#L	.
16f#Jk	.
8.g#L	.
16c#k	.
8.c#	.
16c#Jk	.
=364	=364
!!linebreak:original
4B	.
8.d#L	.
16d#Jk	.
8.eL	.
16f#k	.
8.gn	.
16f#Jk	.
=365	=365
(4f#	.
!LO:TX:b:i:t=cresc.	!
[4b	.
4b]	.
4cc#)	.
=366	=366
4f#	.
8.d#L	.
16eJk	.
8.f#L	.
16Bk	.
8.c#	.
16d#Jk	.
=367	=367
4..e	.
16B	p
8..G#L	.
32G#kk	.
8..G#	.
32d#Jkk	.
=368	=368
(4..e	.
16f#	.
2g#)	.
=369	=369
(4.a	>
8A)	.
4B	.
4B	.
=370	=370
4..e	]
16B	f
8..BL	.
32Bkk	.
8..B	.
32BJkk	.
=371	=371
!!linebreak:original
1B	>
=372	=372
(8.AL	p
16Bk	.
8c#	.
8GnJ)	.
!LO:TX:b:i:t=cresc.	!
(4G#X	.
4g#)	.
=373	=373
4g#	p
8.bL	.
16BJk	.
4B	.
8.bL	.
16BJk	.
=374	=374
!LO:TX:b:i:t=mancando	!
4B	.
8.bL	.
16BJk	.
4B	.
8.bL	.
16BJk	.
=375	=375
4B	.
8.bL	.
16BJk	.
4B	.
8.bL	.
16BJk	.
=376	=376
4B	.
!LO:TX:b:i:t=cresc.	!
8.bL	.
16BJk	.
4B	.
8.bL	.
16BJk	.
=377	=377
(2g#	.
2d#)	p
=378	=378
(2e	.
2B)	.
=379	=379
(<2c#	.
2G#)	.
=380	=380
!!linebreak:original
(4d#X	.
12eL	.
12d#	.
12c#J	.
2B)	.
=381	=381
!LO:TX:b:i:t=cresc.	!
2.f#	.
[4a	.
=382	=382
(4a]	.
4g#	.
4e	.
4f#)	.
=383	=383
(4g#	.
4c#)	.
(12BL	f
12d#	.
12eJ	.
12f#L	.
12g#	.
12aJ)	.
=384	=384
2g#	.
[2e	>
=385	=385
1e_	]
=386	=386
2e]	p
[2f# [2a	.
=387	=387
1f#_ 1a_	.
=388	=388
1f#_ 1a_	.
=389	=389
!LO:TX:b:i:t=cresc.	!
4f#] 4a]	.
(4F#'	.
4F#'	.
4F#')	.
=390	=390
1G#	.
=391	=391
(2E	p
2D#X)	.
=392	=392
!!linebreak:original
[4Dn	.
12DL]	.
12B	.
12G#XJ	.
[4D	.
12DL]	.
12E	.
12DJ	.
=393	=393
([4Cn	.
12CL]	.
12E	.
12AJ)	.
([4D#X	.
12D#L]	.
12F#	.
12BJ)	.
=394	=394
([4E	.
12EL]	.
12D#X	.
12EJ)	.
([4D#	.
12D#L]	.
12C#X	.
12D#J)	.
=395	=395
([4E	.
12EL]	.
12D#	.
12EJ)	.
([4D#	.
12D#L]	.
12C#	.
12D#J)	.
=396	=396
!LO:TX:b:i:t=cresc.	!
(12EL	.
12F#	.
12G#J	.
12AL	.
12B	.
12c#J)	.
2B	.
=397	=397
!!linebreak:original
(<4A	.
4c#	.
8F#)	.
8r	p
8G#	.
!LO:TX:b:i:t=cresc.	!
8r	.
=398	=398
8A	.
8r	.
8B	.
8r	.
8c#	.
8r	.
8c#	.
8r	.
=399	=399
2B	.
[2A	ff
=400	=400
2A]	sf
[2c#	sf
=401	=401
2c#]	.
[2dn	sf
=402	=402
2d]	.
[2d#X	sf
=403	=403
2d#]	.
[2A	sf
=404	=404
2A]	.
2G#	sf
=405	=405
(2E	]
4..F#	p
16G#)	.
=406	=406
!!linebreak:original
4E	.
12EL	.
12E	.
12EJ	.
4r	.
12G#L	.
12G#	.
12G#J	.
=407	=407
4r	.
12AL	.
12A	.
12AJ	.
4r	.
12AL	.
12A	.
12AJ	.
=408	=408
([4E	.
12EL]	.
12B	.
12G#J)	.
([4Dn	.
12DL]	.
12E	.
12DnJ)	.
=409	=409
([4Cn	.
12CL]	.
12E	.
12AJ)	.
([4D#X	.
12D#L]	.
12F#	.
12BJ)	.
=410	=410
([4E	.
12EL]	.
12D#	.
12EJ)	.
([4D#	.
12D#L]	.
12C#	.
12D#J)	.
=411	=411
!!linebreak:original
[4E	.
!LO:TX:b:i:t=dim.	!
12EL]	.
12D#	.
12EJ	.
[4D#	.
12D#L]	.
12C#	.
12D#J	.
=412	=412
(2E	.
2G#	.
=413	=413
1G#)	.
=414	=414
(12BL	.
12A	.
12G#J	.
12F#L	.
12E	.
12D#J)	.
[2E	.
=415	=415
1E_	.
=416	=416
2E]	.
8G#	.
8r	.
8G#	.
8r	.
=417	=417
8G#	.
8r	.
4r	.
8E	.
8r	.
4r	.
=418	=418
1E;	<
==419	==419
!!linebreak:original
*k[f#]	*
*G:	*
*M3/4	*
!LO:TX:a:B:t=Allegretto	!
4G	[
8r	pp
8eL	.
8eJ	.
8r	.
=420!|:	=420!|:
4r	.
8r	.
8d#XL	.
8d#J	.
8r	.
=421	=421
4r	.
8r	.
8d#XL	.
8d#J	.
8r	.
=422	=422
4r	.
8r	.
8BL	.
8BJ	.
8r	.
=423	=423
4r	.
8r	.
8eL	.
8eJ	.
8r	.
=424	=424
!LO:TX:b:i:t=cresc.	!
4r	.
8r	.
8eL	.
8eJ	.
8r	.
=425	=425
8r	.
8c#XL 8e	.
8c#J 8e	f
8r	.
4r	.
=426	=426
4r	.
4d'	p
4f#'	.
=427	=427
4e	pp
8r	.
8eL	.
8eJ	.
8r	.
=428:|!	=428:|!
!!linebreak:original
4r	.
4d	p
4r	.
=429	=429
4r	.
8r	.
8A'L	pp
8A'J	.
8r	.
=430!|:	=430!|:
4r	.
8r	.
8DL	.
8DJ	.
8r	.
=431	=431
4r	.
8r	.
8BL	.
8BJ	.
8r	.
=432	=432
4r	.
8r	.
8EL	.
8EJ	.
8r	.
=433	=433
8r	.
8e	.
!LO:TX:b:i:t=cresc.	!
(4.a	.
8cc)	.
=434	=434
8r	.
8cc	.
(4.dd	.
8b)	.
=435	=435
8r	.
8g#X	.
(4.e	.
8d)	.
=436	=436
8r	.
(8dL	.
8B	.
8c	.
8B-X	.
8cJ)	sf
=437	=437
[2.C [2.c	f
=438	=438
!!linebreak:original
2.C_ 2.c_	.
=439	=439
2.C_ 2.c_	.
=440	=440
2.C_ 2.c_	.
=441	=441
8CL] 8c]	.
8C'J	ff
(4.Fn	.
8A)	.
=442	=442
8r	.
8C'	.
(4.Fn	.
8A)	.
=443	=443
8r	.
8C'	.
(4.Fn	.
8A)	.
=444	=444
[2.F#X [2.A	ff
=445	=445
4F#] 4A]	[
8r	p
8f#L	.
8f#J	.
8r	.
=446	=446
4r	.
8r	.
8gL	.
8gJ	.
8r	.
=447	=447
4r	.
8r	.
8aL	.
8aJ	.
8r	.
=448	=448
!LO:TX:b:i:t=cresc.	!
4g	.
4r	.
[4C [4c	.
=449	=449
8CL] 8c]	ff
8CJ	.
(4.Fn	.
8A)	.
=450	=450
!!linebreak:original
8r	.
8C	.
(4.Fn	.
8A)	.
=451	=451
8r	.
8C	.
(4.Fn	.
8A)	.
=452	=452
[2.F#X [2.A	ff
=453	=453
4F#] 4A]	p
8r	.
8f#XL	.
8f#J	.
8r	.
=454	=454
4r	.
8r	.
8gL	.
8gJ	.
8r	.
=455	=455
4r	.
8r	.
8aL	.
8aJ	.
8r	.
=456	=456
4E	.
8r	pp
8eL	.
8eJ	.
8r	.
=457	=457
4d#X	.
8r	.
8d#L	.
8d#J	.
8r	.
=458	=458
4d#X	.
8r	.
8d#L	.
8d#J	.
8r	.
=459	=459
4e	.
8r	.
8eL	.
8eJ	.
8r	.
=460	=460
!!linebreak:original
4A	.
8r	.
8AL	.
8AJ	.
8r	.
=461	=461
4B	.
8r	.
8BL	.
8BJ	.
8r	.
=462	=462
4B	.
8r	.
8BL	.
8BJ	.
8r	.
=463	=463
4E	.
8r	.
8EL 8G	.
8EJ 8A	.
8r	.
=464	=464
4E 4A	.
8r	.
8EL 8A	.
8EJ 8G	.
8r	.
=465	=465
4E 4G	.
!LO:TX:b:i:t=cresc.	!
!LO:TX:b:i:t=cresc.	!
!LO:TX:b:i:t=cresc.	!
8r	.
8EL 8G	.
8EJ 8A	.
8r	.
=466	=466
4E 4A	.
!LO:TX:b:i:t=cresc.	!
8r	.
8EL 8A	.
8EJ 8G	.
8r	.
=467	=467
4E 4A	.
8r	.
8EL 8A	.
8EJ 8G	.
8r	.
=468	=468
4r	.
[2B	f
=469	=469
(2B]	>
4E)	.
=470	=470
!!linebreak:original
4E	]
4r	p
4r	.
=471	=471
4B	.
4r	.
4r	.
=472	=472
4E	.
4G	pp
4G	.
=473	=473
4A	.
8r	.
8AL	.
8AJ	.
8r	.
=474:|!	=474:|!
4E	.
4r	p
4r	.
=475	=475
4B	.
4r	.
4r	.
=476	=476
4E	.
=||	=||
*k[f#c#g#d#]	*
*E:	*
!LO:TX:a:B:t=Maggiore	!
!LO:TX:a:t=Theme russe.	!
8e'	p
8r	.
8B'	.
8r	.
=477	=477
(8eL	.
8f#J)	.
8g#'	.
8r	.
8g#'	.
8r	.
=478	=478
(8g#L	.
8bJ)	.
8a'	.
8r	.
8g#'	.
8r	.
=479	=479
!LO:TX:b:i:t=cresc.	!
8f#'	.
8r	.
8e'	.
8r	.
8f#'	.
8r	.
=480	=480
!!linebreak:original
(2g#	.
4e)	.
=481	=481
(2f#	.
8g#L	>
8f#J)	.
=482	=482
4e	p
4r	.
(4e	.
=483	=483
8d#)	.
8r	.
8B	.
8r	.
[4F#	.
=484	=484
8F#]	.
8r	.
8f#	.
8r	.
[4f#	.
=485	=485
8f#]	.
!LO:TX:b:i:t=cresc.	!
8r	.
8F#	.
8r	.
[4f#	.
=486	=486
4f#]	.
4B	.
[4b	.
=487	=487
4b]	sf
4a	>
[4a	.
=488	=488
4a]	]
4g#	.
4r	p
=489	=489
2.r	.
=490	=490
2.r	.
=491	=491
!LO:TX:b:i:t=cresc.	!
!LO:TX:b:i:t=cresc.	!
2.r	.
=492	=492
4r	.
4r	.
4B	.
=493	=493
[2.B	sf
=494	=494
!!linebreak:original
4B]	p
(<12d#L	.
12c#	.
12BJ	.
12A#XL	.
12G#	.
12A#J)	.
=495	=495
(12BL	.
12A#X	.
12G#J)	.
12F#L	.
12F#	.
12F#J	.
(12F#L	.
12G#	.
12A#J)	.
=496	=496
(<12BL	.
12A#X	.
12BJ	.
12c#L	.
12B	.
12c#J	.
12d#L	.
12c#	.
12d#J)	.
=497	=497
!LO:TX:b:i:t=cresc.	!
(12eL	.
12f#	.
12eJ	.
12d#L	.
12c#	.
12BJ	.
12A#XL	.
12G#	.
12F#J)	.
=498	=498
(12BL	.
12c#	.
12d#J	.
12eL	.
12f#	.
12g#J	.
12f#L	.
12g#	.
12f#J)	.
=499	=499
(12e#XL	p
12f#	.
12e#J	.
12f#L	.
12g#	.
12f#J	.
12enL	.
12f#	.
12eJ)	.
=500	=500
!!linebreak:original
!LO:TX:b:i:t=cresc.	!
(12d#L	.
12e	.
12d#J)	.
4e	.
[4g#	.
=501	=501
(4g#]	.
4f#	.
[4d#)	.
=502	=502
4d#]	.
[2c#	.
=503	=503
4c#]	f
2A	.
=504	=504
8G#'	.
8r	.
8e'	p
8r	.
8B'	.
8r	.
=505	=505
(8eL	.
8f#J)	.
8g#'	.
8r	.
8g#'	.
8r	.
=506	=506
(8g#L	.
8bJ)	.
8a'	.
8r	.
8g#'	.
8r	.
=507	=507
8f#'	.
8r	.
8e'	.
8r	.
8f#'	.
8r	.
=508	=508
(2g#	.
4e)	.
=509	=509
(2f#	.
8g#L	.
8f#J)	.
=510	=510
8e	.
8r	.
8B	ff
8r	.
[4e	sf
=511	=511
!!linebreak:original
8e]	.
8r	.
8B	.
8r	.
[4e	sf
=512	=512
4e]	.
4B	.
[4e	.
=513	=513
4e]	sf
4B	.
[4e	sf
=514	=514
4e]	>
(4e	.
4B)	p
=515	=515
!LO:TX:b:i:t=legato e sempre	!
(8eL	.
8f#J)	.
[4g#'	.
4g#']	.
=516	=516
(8g#L	.
8aJ)	.
[4b'	.
4b']	p
=517	=517
(4.b	.
8aL	.
8g#	.
8f#J)	.
=518	=518
(4e	.
4d#	.
4e	.
=519	=519
4f#	.
4g#	.
4f#)	.
=520	=520
(4e	.
4f#	.
4gn	.
=521	=521
4a	.
4f#	.
4d#)	.
=522	=522
!!linebreak:original
(4e	.
4A	.
4G#	.
=523	=523
4F#	.
4E	.
4F#)	.
=524	=524
(4G#	.
4F#	.
4E	.
=525	=525
4D#	.
4C#	.
4D#)	.
=526	=526
(4E	.
4G#)	.
4r	.
=527	=527
4r	.
4A	.
4r	.
=528	=528
4r	.
4G#	.
4r	.
=529	=529
4r	.
4B	.
4r	.
=530	=530
4r	.
4B	.
!LO:TX:b:i:t=dim.	!
4r	.
=531	=531
4B	.
4r	.
4Gn	.
=532	=532
4r	.
(8GnL	pp
8F#J	.
4E')	.
=533	=533
(8GnL	.
8F#J	.
4E')	.
(8GnL	.
8F#J)	.
==534	==534
!!linebreak:original
*k[f#]	*
*e:	*
*M2/2	*
*met(c|)	*
!LO:TX:a:B:t=Finale. Presto	!
!LO:TX:a:t=Da Capo	!
4E'	fp
8r	.
8E'	.
4E'	.
8r	.
8E'	.
=535	=535
4E'	.
8r	.
8E'	.
4Fn'	.
8r	.
8F'	.
=536	=536
4E'	.
8r	.
8E'	.
4E'	.
8r	.
8E'	.
=537	=537
4E'	.
8r	.
8E'	.
4Fn'	.
8r	.
8F'	.
=538	=538
4E'	.
8r	.
8E'	.
4E'	.
8r	.
8E'	.
=539	=539
4E'	.
8r	.
8E'	.
4E'	.
8r	.
8E'	.
=540	=540
4E'	.
8r	.
8E'	.
4E'	.
8r	.
8E'	.
=541	=541
!!linebreak:original
4F#X'	.
!LO:TX:b:i:t=cresc.	!
8r	.
8F#'	.
4F#'	.
8r	.
8F#'	.
=542	=542
4E	.
8r	.
8G	.
4G	.
8r	.
8G	.
=543	=543
4G	.
8r	fp
8e	.
4e	.
8r	.
8e	.
=544	=544
4e	.
8r	.
8e	.
4fn	.
8r	.
8f	.
=545	=545
4e	.
8r	.
8e	.
4e	.
8r	.
8e	.
=546	=546
4e'	.
8r	.
8e'	.
4fn'	.
8r	.
8f'	.
=547	=547
4e'	.
8r	.
8e'	.
4e'	.
8r	.
8e'	.
=548	=548
4e'	.
8r	.
8e'	.
4e'	.
8r	.
8e'	.
=549	=549
!!linebreak:original
4e'	.
8r	.
8e'	.
4e'	.
8r	.
8e'	.
=550	=550
4f#X'	.
8r	.
!LO:TX:b:i:t=cresc.	!
8f#'	.
4f#'	.
8r	.
8f#'	.
=551	=551
4B'	.
8r	.
8B'	.
4B'	.
8r	.
8B'	.
=552	=552
4A#X'	fp
8r	.
8A#'	.
4A#'	.
8r	.
8A#'	.
=553	=553
4A#X'	.
8r	.
8A#'	.
4A#'	.
8r	.
8A#'	.
=554	=554
2A#X'	.
!LO:TX:b:i:t=cresc.	!
2An'	.
=555	=555
2d'	.
2G' 2d	.
=556	=556
4G'	fp
8r	.
8G'	.
4G'	.
8r	.
8G'	.
=557	=557
!!linebreak:original
4G'	.
8r	.
8G'	.
4A'	.
8r	.
8B'	.
=558	=558
4c'	.
8r	.
8G'	.
4G'	.
8r	.
8G'	.
=559	=559
4G'	.
8r	.
8G'	.
4A'	.
8r	.
8B'	.
=560	=560
4c'	.
8r	.
8E'	.
4E'	.
8r	.
8D'	.
=561	=561
4C'	.
8r	.
8D'	.
4E'	.
8r	.
8E'	.
=562	=562
4E'	.
8r	.
8E'	.
4E' 4G	.
8r	.
8E' 8G	.
=563	=563
4F#' 4A	.
8r	.
!LO:TX:b:i:t=cresc.	!
8F#' 8A	.
4F#' 4A	.
8r	.
8F#' 8A	.
=564	=564
!!linebreak:original
4E' 4G	.
8r	.
8G'	.
4B'	.
8r	.
8B'	.
=565	=565
4A#X'	fp
8r	.
8A#'	.
4A#'	.
8r	.
8A#'	.
=566	=566
4A#X'	.
8r	.
8A#'	.
4A#'	.
8r	.
8A#'	.
=567	=567
!LO:TX:b:i:t=cresc.	!
2A#X'	.
2An'	.
=568	=568
2d'	.
2G' 2d	.
=569	=569
4G'	.
8r	fp
8E' 8G	.
4E' 4G	.
8r	.
8E' 8G	.
=570	=570
4E' 4G	.
8r	.
8E' 8G	.
4Fn' 4A	.
8r	.
8A'	.
=571	=571
4c'	.
8r	.
8E' 8G	.
4E' 4G	.
8r	.
8E' 8G	.
=572	=572
!!linebreak:original
4E' 4G	.
8r	.
8E' 8G	.
4Fn' 4A	.
8r	.
8F'	.
=573	=573
4c'	.
8r	.
8E'	.
4Fn'	.
8r	.
8A'	.
=574	=574
4c'	.
8r	.
8fn'	.
4e'	.
8r	.
8d'	.
=575	=575
4c'	.
!LO:TX:b:i:t=cresc.	!
8r	.
8c'	.
4e'	.
8r	.
8e'	.
=576	=576
4e'	.
8r	.
8e'	.
4e'	.
8r	.
8e'	.
=577	=577
4d#X'	.
8r	.
8B'	.
4B'	.
8r	.
8B'	.
=578	=578
4A'	.
8r	.
8A'	.
4B'	.
8r	.
8B'	.
=579	=579
!!linebreak:original
4A'	.
8r	.
8A'	.
4G#X'	.
8r	.
8E'	.
=580	=580
4E'	.
8r	.
8E'	.
4F#'	.
8r	.
8F#'	.
=581	=581
4Gn	f
4B	.
4r	.
4B	.
=582	=582
4r	.
4d#X	.
4r	.
4e	.
=583	=583
4r	.
4c	.
4r	.
4g#X	.
=584	=584
4r	.
4a	.
4r	.
4f#	.
=585	=585
4B	.
!LO:TX:b:i:t=sempre.	!
4r	.
2r	f
=586	=586
4B 4f#	.
4r	.
2r	.
=587	=587
4B	.
4r	.
2r	.
=588	=588
4F# 4B	.
4r	.
2r	.
=589	=589
!!linebreak:original
8G	.
8r	.
(8GL	.
8AJ	.
8B')	.
8r	.
(8cL	.
8dJ	.
=590	=590
8e')	.
8r	.
(8eL	.
8f#J	.
2gT)	.
=591	=591
4f#	.
4r	.
2r	.
=592	=592
1r	.
=593	=593
8E	.
8r	.
(8EL	.
8F#XJ	.
8G')	.
8r	.
(<8AL	.
8BJ	.
=594	=594
8c')	.
8r	.
(8cL	.
8dJ	.
2eT)	.
=595	=595
4d	.
4r	.
2r	.
=596	=596
2r	.
4r	.
4d	.
=597	=597
4c#X	.
(8c#L	sf
8dJ	.
[2e	.
=598	=598
!!linebreak:original
4e'])	.
(8dL	sf
8c#XJ	.
4d	.
4B	.
=599	=599
4A#X)	.
8a#XL	.
8bJ	sf
[2cc#X	.
=600	=600
4cc#']	sf
(8bL	.
8a#XJ	.
4b	.
4g#X)	.
=601	=601
4a#X	.
4r	.
2r	sf
=602	=602
2r	.
4r	.
(4A#X	.
=603	=603
4B)	p
4r	.
(4B	.
4d)	.
=604	=604
2r	.
(4F#	.
4e)	.
=605	=605
2r	.
(4B	.
4d)	.
=606	=606
2r	.
(4c	.
4e)	.
=607	=607
2r	.
(<4G	.
4c)	.
=608	=608
!!linebreak:original
2r	.
(4B	.
4F#)	.
=609	=609
2r	.
(4A#X	.
4F#)	.
=610	=610
4r	.
(4D	<
4F#	.
4B)	.
=611	=611
(4D	.
4F#	.
4B	.
4d	.
=612	=612
4c#X	[
4e)	.
4r	p
(4e	.
=613	=613
4d	.
4f#)	.
4r	.
(4f#	.
=614	=614
4e	.
4g)	.
4r	.
(4g	.
=615	=615
4G	.
4c	.
4e	.
4g	.
=616	=616
4f#	.
4d)	.
4r	.
(4d	.
=617	=617
4e	.
4c#X)	.
4r	.
4c#	.
=618	=618
!!linebreak:original
4d	pp
(8dL	.
8eJ	.
2f#)	.
=619	=619
(4g	.
8eL	.
8f#J	.
4g	.
8f#L	.
8eJ)	.
=620	=620
4d	.
(8dL	.
8eJ	.
8f#L	.
8d	.
8e	.
8f#J)	.
=621	=621
(2.g	.
8f#L	.
8eJ)	.
=622	=622
4d	pp
4r	.
2r	.
=623	=623
2r	.
4r	.
(<8BL	pp
8c#XJ	.
=624	=624
8d')	.
8r	.
4r	.
2r	.
=625	=625
4r	.
(<8BL	.
8c#XJ	.
8d')	.
8r	.
4r	.
=626	=626
1r	.
=627	=627
!!linebreak:original
2r	.
4r	.
(<8BL	.
8cnJ	.
=628	=628
8d')	.
8r	.
4r	.
2r	.
=629	=629
4r	.
(<8BL	.
8cJ	.
8d')	.
8r	.
4r	.
=630	=630
1r	.
=631	=631
1r	.
=632	=632
4r	.
(8DL	.
8EJ	.
8Fn')	.
8r	.
4r	.
=633	=633
4r	.
(8DL	.
8EJ	.
8Fn')	.
8r	.
4r	.
=634	=634
4r	.
(8DL	.
8EJ	.
8Fn')	.
8r	.
4r	.
=635	=635
4r	.
(8DL	.
8EJ	.
8Fn')	.
8r	.
4r	.
=636	=636
!!linebreak:original
4Fn	.
(8DL	.
8EJ	.
4F')	.
!LO:TX:b:i:t=cresc.	!
(8DL	.
8EJ	.
=637	=637
4Fn')	.
(8DL	.
8EJ	.
4F')	.
(8DL	.
!LO:TX:b:i:t=piu cresc.	!
8EJ	.
=638	=638
4Fn')	.
(8DL	.
8EJ	.
4F')	.
(8DL	.
8EJ	.
=639	=639
8FnL)	.
(8D	.
8E	.
8FJ	.
8GL	.
8F	.
8E	.
8DJ)	.
=640	=640
4C'	fp
8r	.
8E'	.
4E'	.
8r	.
8E'	.
=641	=641
4E'	.
8r	.
8E'	.
4Fn'	.
8r	.
8Fn'	.
=642	=642
!!linebreak:original
4E'	.
8r	.
8E'	.
4E'	.
8r	.
8E'	.
=643	=643
4E'	.
8r	.
8E'	.
4Fn'	.
8r	.
8F'	.
=644	=644
4E'	.
8r	.
8E'	.
4E'	.
8r	.
8E'	.
=645	=645
4E'	.
8r	.
8E'	.
4E'	.
8r	.
8E'	.
=646	=646
4E'	.
8r	.
8E'	.
4E'	.
8r	.
8E'	.
=647	=647
4F#X'	.
!LO:TX:b:i:t=cresc.	!
8r	.
8F#'	.
4F#'	.
8r	.
8F#'	.
=648	=648
!!linebreak:original
4E'	.
8r	.
8G'	.
4G'	.
8r	.
8G'	.
=649	=649
4G'	fp
8r	.
8e'	.
4e'	.
8r	.
8e'	.
=650	=650
4e'	.
8r	.
8e'	.
4fn'	.
8r	.
8f'	.
=651	=651
4e'	.
8r	.
8e'	.
4e'	.
8r	.
8e'	.
=652	=652
4e'	.
8r	.
8e'	.
4fn'	.
8r	.
8f'	.
=653	=653
4e'	.
8r	.
8e'	.
4e'	.
8r	.
8e'	.
=654	=654
4e'	.
8r	.
8e'	.
4e'	.
8r	.
8e'	.
=655	=655
!!linebreak:original
4e'	.
8r	.
8e'	.
4e'	.
8r	.
8e'	.
=656	=656
4f#X'	.
!LO:TX:b:i:t=cresc.	!
8r	.
8f#'	.
4f#'	.
8r	.
8f#'	.
=657	=657
4B'	.
8r	.
8B'	.
4B'	.
8r	.
8B'	.
=658	=658
4A#X'	fp
8r	.
8A#'	.
4A#'	.
8r	.
8A#'	.
=659	=659
4A#X'	.
8r	.
8A#'	.
4A#'	.
8r	.
8A#'	.
=660	=660
!LO:TX:b:i:t=cresc.	!
2A#X'	.
2An'	.
=661	=661
2d'	.
2G' 2d	.
=662	=662
4G	fp
8r	.
8E 8G	.
4E 4G	.
8r	.
8E 8G	.
=663	=663
!!linebreak:original
4E' 4G	.
8r	.
8E' 8G	.
4Fn' 4A	.
8r	.
8F'	.
=664	=664
4E'	.
8r	.
8E' 8G	.
4E' 4G	.
8r	.
8E' 8G	.
=665	=665
4E' 4G	.
8r	.
8E' 8G	.
4Fn' 4A	.
8r	.
8F'	.
=666	=666
4E'	.
8r	.
8E' 8G	.
4E' 4G	.
8r	.
8E' 8G	.
=667	=667
4E' 4G	.
8r	.
8E' 8G	.
4E' 4G	.
8r	.
8E' 8G	.
=668	=668
4E' 4G	.
8r	.
8E' 8G	.
4E' 4G	.
8r	.
8E' 8G	.
=669	=669
!!linebreak:original
4F#X' 4A	.
8r	.
!LO:TX:b:i:t=cresc.	!
8F#' 8A	.
4F#' 4A	.
8r	.
8F#' 8A	.
=670	=670
4E' 4G	.
8r	.
8B'	.
4B'	.
8r	.
8B'	.
=671	=671
4A#X'	fp
8r	.
8A#'	.
4A#'	.
8r	.
8A#'	.
=672	=672
4A#X'	.
8r	.
8A#'	.
4A#'	.
8r	.
8A#'	.
=673	=673
!LO:TX:b:i:t=cresc.	!
2A#X'	.
2An'	.
=674	=674
2G'	.
2G' 2d	.
=675	=675
4G'	fp
8r	.
8E'	.
4E'	.
8r	.
8Fn'	.
=676	=676
!!linebreak:original
4E'	.
8r	.
8E' 8G	.
4E' 4G	.
8r	.
8Fn' 8A	.
=677	=677
4E' 4G	.
8r	.
8E'	.
4E'	.
8r	.
8Fn'	.
=678	=678
4E'	.
8r	.
8E' 8G	.
4E' 4G	.
8r	.
8Fn' 8A	.
=679	=679
1E	ff
=680	=680
1A	sf
=681	=681
2Fn	.
2d	sf
=682	=682
2B	.
2fn	sf
=683	=683
4e	ff
!LO:TX:b:i:t=sempre.	!
4r	.
2c	.
=684	=684
1fn	sf
=685	=685
2d	.
[2b	sf
=686	=686
!!linebreak:original
2b]	.
2e	sf
=687	=687
1C	.
=688	=688
1Fn	.
=689	=689
2D	sf
2B	.
=690	=690
2G#X	sf
2d	sf
=691	=691
4c	.
4r	.
2A	.
=692	=692
[1d	sf
=693	=693
2d]	.
[2g	sf
=694	=694
2g]	.
2b-X	sf
=695	=695
4a	.
8Fn'L	.
8G'J	.
8A'L	.
8F'	.
8G'	.
8A'J	.
=696	=696
4B-X	.
4r	.
2r	.
=697	=697
4r	.
8E-X'L	.
8Fn'J	.
8G'L	.
8E-'	.
8F'	.
8G'J	.
=698	=698
!!linebreak:original
4A	.
4r	.
8r	.
8En'L	.
8Fn'	.
8G'J	.
=699	=699
2A-X	.
2Fn	.
=700	=700
2D	.
[2G	sf
=701	=701
2G]	.
2E-X	.
=702	=702
2C	.
[2Fn	.
=703	=703
1F_	.
=704	=704
1F_	pp
=705	=705
1F_	.
=706	=706
(2.F]	.
8GL	.
8AJ)	.
=707	=707
[1B-X	.
=708	=708
1B-_	.
=709	=709
!LO:TX:b:i:t=cresc.	!
4.B-]	.
8G'	.
4Fn'	.
8r	.
8E-X'	.
=710	=710
!!linebreak:original
4D'	.
4C'	.
4D'	.
4D'	.
=711	=711
4En	ff
4r	.
2r	.
=712	=712
1r	.
=713	=713
1r	.
=714	=714
4e'	.
4d'	.
(>4c#X	.
8BL	.
8c#XJ)	.
=715	=715
2.d	.
4D	.
=716	=716
2.d	.
4D	.
=717	=717
2.d	.
4D	.
=718	=718
4d	.
4D	.
4d	.
4D	.
=719	=719
4g'	.
4fn'	.
(4e-X	.
8dL	.
8e-J)	.
=720	=720
4fn'	.
4e-X'	.
(4d	.
8cL	.
8dJ)	.
=721	=721
!!linebreak:original
4e-X'	.
4d'	.
(>4c	.
8BL	.
8cJ)	.
=722	=722
4d'	.
4c'	.
(4B	.
8AL	.
8BJ)	.
=723	=723
1c	.
=724	=724
4A	.
(8AL	.
8BJ	.
4c#X	.
8dL	.
8eJ)	.
=725	=725
1d	.
=726	=726
4B	.
(8BL	.
8c#XJ	.
4d#X	.
8eL	.
8f#XJ)	.
=727	=727
[1e	.
=728	=728
1e]	.
=729	=729
[1fn	.
=730	=730
1f]	.
=731	=731
!!linebreak:original
8e	.
8r	.
(8EL	.
8FnJ	.
8G')	.
8r	.
(<8AL	.
8BJ	.
=732	=732
8c')	.
8r	.
(8cL	.
8dJ	.
2eT)	.
=733	=733
[1d	.
=734	=734
1d]	.
=735	=735
4c	.
4r	.
2r	.
=736	=736
2r	.
4r	.
[4e	.
=737	=737
4e]	.
4r	.
2r	.
=738	=738
2r	.
4r	.
4e	.
=739	=739
4f#	.
4f#	f
2f#	.
=740	=740
4r	sf
4e	.
2e	sf
=741	=741
!!linebreak:original
4r	.
4d#X	.
2d#	sf
=742	=742
4r	.
4e	.
4r	.
4e	.
=743	=743
4f#X	.
(8f#L	.
8gJ)	.
[2a	sf
=744	=744
4a]	.
(8gL	.
8f#J	.
4g	.
4e)	.
=745	=745
4d#X	.
(8d#L	.
8eJ	.
[2f#)	.
=746	=746
4f#]	sf
(8eL	.
8d#XJ	.
4e	.
4c#X	.
=747	=747
4d#X)	.
4r	.
2r	.
=748	=748
2r	.
4r	.
(4d#X	.
=749	=749
4e)	p
4r	.
(4e	.
4g)	.
=750	=750
!!linebreak:original
2r	.
(4f#	.
4a)	.
=751	=751
2r	.
(4B	.
4g)	.
=752	=752
2r	.
(4fn	.
4a)	.
=753	=753
2r	.
(4c	.
4fn)	.
=754	=754
2r	.
(4e	.
4B)	.
=755	=755
2r	.
(4f#X	.
4B)	.
=756	=756
1r	.
=757	=757
(4E	.
!LO:TX:b:i:t=cresc.	!
4G	.
4B	.
4e	.
=758	=758
4d#X	p
4f#)	.
4r	.
(4f#	.
=759	=759
4e	.
4g)	.
4r	.
(4g	.
=760	=760
4fn	.
4a)	.
4r	.
(4a	.
=761	=761
!!linebreak:original
4A)	.
(4c	.
4fn	.
4a	.
=762	=762
4g	.
4e)	.
4r	.
(4e	.
=763	=763
4f#X	.
4B)	.
4r	.
4B	.
=764	=764
4e	.
4r	.
[2C [2c	.
=765	=765
!LO:TX:b:i:t=cresc.	!
1C] 1c]	.
=766	=766
1C 1c	f
=767	=767
1C 1c	f
=768	=768
1C 1c	f
=769	=769
(<4C	f
4Fn	p
4A	.
4c	.
=770	=770
4B	.
4G)	.
4r	.
(4G	.
=771	=771
4A	.
4F#X)	.
4r	.
4F#	.
=772	=772
!!linebreak:original
4G	.
4r	.
[2C [2c	sf
=773	=773
1C] 1c]	f
=774	=774
1C 1c	.
=775	=775
1C 1c	f
=776	=776
1C 1c	f
=777	=777
(<4C	p
4Fn	.
4A	.
4c	.
=778	=778
4B	.
4G)	.
4r	.
(4G	.
=779	=779
4A	.
4F#X)	.
4r	.
4F#	.
=780	=780
4G	pp
(8GL	.
8AJ	.
2B)	.
=781	=781
(<4c	.
8AL	.
8BJ	.
4c	.
8BL	.
8AJ)	.
=782	=782
!!linebreak:original
4G	.
(8GL	.
8AJ	.
8BL	.
8G	.
8A	.
8BJ)	.
=783	=783
(<2.c	.
8BL	.
8AJ)	.
=784	=784
4G	.
4r	.
2r	.
=785	=785
2r	.
4r	.
(8eL	.
8f#J	pp
=786	=786
4g')	.
4r	.
2r	.
=787	=787
4r	.
(8EL	.
8F#J	.
4G')	.
4r	.
=788	=788
1r	.
=789	=789
1r	.
=790	=790
1r	.
=791	=791
4r	.
(8EL	.
8FnJ	.
4G')	.
4r	.
=792	=792
2r	.
4r	.
(8dL	.
8eJ	.
=793	=793
!!linebreak:original
4fn')	.
4r	.
2r	.
=794	=794
2r	.
4r	.
(>8BL	.
8cJ	.
=795	=795
4d')	.
4r	.
2r	.
=796	=796
1r	.
=797	=797
1r	.
=798	=798
1r	.
=799	=799
1r	.
=800	=800
1r	.
=801	=801
4r	.
(8DL	.
8EJ	.
4Fn')	.
4r	.
=802	=802
4r	.
(8DL	.
8EJ	.
4Fn')	.
4r	.
=803	=803
4r	.
(8DL	.
8EJ	.
4Fn')	.
4r	.
=804	=804
4r	.
!LO:TX:b:i:t=cresc.	!
(8DL	.
8EJ	.
4Fn')	.
(8DL	.
8EJ	.
=805	=805
4Fn')	.
(8DL	.
8EJ	.
4F')	.
(8DL	.
8EJ	.
=806	=806
!!linebreak:original
!LO:TX:b:i:t=piu cresc.	!
4Fn')	.
(8DL	.
8EJ	.
4F')	.
(8DL	.
8EJ	.
=807	=807
8Fn'L)	.
(8D	.
8E	.
8FJ	.
8GL	.
8F	.
8E	.
8DJ)	.
=808	=808
4C'	fp
8r	.
8E'	.
4E'	.
8r	.
8E'	.
=809	=809
4E'	.
8r	.
8E'	.
4Fn'	.
8r	.
8F'	.
=810	=810
4E'	.
8r	.
8e'	.
4e'	.
8r	.
8e'	.
=811	=811
!!linebreak:original
4e'	.
8r	.
8e'	.
4fn'	.
8r	.
8f'	.
=812	=812
4e'	.
8r	.
8e'	.
4e'	.
8r	.
8e'	.
=813	=813
4e'	.
8r	.
8e'	.
4e'	.
8r	.
8e'	.
=814	=814
4e'	.
8r	.
8e'	.
4e'	.
8r	.
8e'	.
=815	=815
!LO:TX:b:i:t=cresc.	!
4f#X'	.
8r	.
8f#'	.
4f#'	.
8r	.
8f#'	.
=816	=816
4e'	.
8r	.
8G'	.
4Fn'	.
8r	.
8F'	.
=817	=817
4E'	fp
8r	.
8E'	.
4E'	.
8r	.
8E'	.
=818	=818
4E'	.
8r	.
8E'	.
4E'	.
8r	.
8Fn'	.
=819	=819
!!linebreak:original
4E'	.
8r	.
8E'	.
4E'	.
8r	.
8Fn'	.
=820	=820
4E'	.
8r	.
8E'	.
4E'	.
8r	.
8Fn'	.
=821	=821
4E'	.
8r	.
8E'	.
4E'	.
8r	.
8Fn'	.
=822	=822
4G'	.
8r	.
8B'	.
4c'	.
8r	.
8E'	.
=823	=823
!LO:TX:b:i:t=cresc.	!
4E'	.
8r	.
8E'	.
4F#X'	.
8r	.
8F#'	.
=824	=824
4F#X'	.
8r	.
8F#'	.
4F#'	.
8r	.
8F#'	.
=825	=825
4F#'	.
8r	.
8F#'	.
4G'	.
8r	.
8G'	.
=826	=826
!!linebreak:original
4A'	.
8r	.
8A'	.
4B'	.
8r	.
8B'	.
=827	=827
4c'	.
8r	.
8c'	.
4d'	.
8r	.
8d'	.
=828	=828
4e'	.
8r	.
8c'	.
4B'	.
8r	.
8B'	.
=829	=829
4B	.
4B	f
4r	.
4B	.
=830	=830
4r	.
4d#X	.
4r	.
4e	.
=831	=831
4r	.
4e	.
4r	.
4g#X	.
=832	=832
4r	.
4a	.
4r	.
4f#	.
=833	=833
4B 4e	.
4r	ff
2r	.
=834	=834
!!linebreak:original
4B 4f#	.
4r	.
2r	.
=835	=835
4B 4e	.
4r	.
2r	.
=836	=836
4B 4f#	.
4r	.
2r	.
=837	=837
!LO:TX:b:i:t=sempre.	!
4B 4e	.
4r	.
2r	.
=838	=838
4B	f
4r	.
2r	.
=839	=839
4B	.
4r	.
2r	.
=840	=840
4G 4d	.
4r	.
2r	.
=841	=841
4G	.
4r	.
2r	.
=842	=842
4e	.
4r	.
2r	.
=843	=843
4a	.
4r	.
2r	.
=844	=844
!!linebreak:original
4g	.
4r	.
2r	.
=845	=845
4B	.
4r	.
2r	.
=846	=846
4E	.
4r	.
2r	.
=847	=847
1r	.
=848	=848
1r	.
=849	=849
(4E	p
!LO:TX:b:i:t=cresc.	!
8F#XL	.
8G#XJ	.
4A	.
8FnL	.
8EJ)	.
=850	=850
(4D#X	p
4F#X	.
4E	.
4F#)	.
=851	=851
(4G#X	.
[2.E)	.
=852	=852
!LO:TX:b:i:t=cresc.	!
1E_	.
=853	=853
(4E]	.
8F#XL	.
8G#XJ	.
4A	.
8FnL	.
8EJ)	.
=854	=854
[1D	.
=855	=855
!!linebreak:original
(4D]	p
8E-XL	.
8FnJ	.
4Gn	.
8E-L	.
8DJ)	.
=856	=856
!LO:TX:b:i:t=dim.	!
2.C#X	.
(8c#XL	.
8enJ)	.
=857	=857
2d	.
[2d	.
=858	=858
2.d]	.
(8BL	.
8dJ)	.
=859	=859
4c	.
2r	.
(8A#XL	.
8BJ)	.
=860	=860
4c#X	.
(8c#L	.
8BJ	.
4A#X	.
4B)	.
=861	=861
4B	.
4r	pp
2r	.
=862	=862
!LO:TX:b:i:t=sempre.	!
4B	.
4r	.
2r	.
=863	=863
4B	pp
4r	.
2r	.
=864	=864
!!linebreak:original
4B	.
4r	.
2r	.
=865	=865
4f# 4a	.
2r	.
(8d#XL	.
8eJ	.
=866	=866
8f#')	.
4r	.
8e'	.
4d#X'	.
4r	.
=867	=867
2r	.
4r	.
(8eL	.
8f#J	.
=868	=868
4g')	.
8r	.
8f#'	.
4e'	.
4r	.
=869	=869
2r	.
4r	.
(8d#XL	.
8eJ	.
=870	=870
!LO:TX:b:i:t=cresc.	!
4f#')	.
8r	.
8e'	.
4d#X'	.
4r	.
=871	=871
2r	.
4r	.
(8eL	.
8f#J	.
=872	=872
!!linebreak:original
4g')	.
8r	.
8f#'	.
4e'	.
4r	.
=873	=873
4c	.
4r	f
2r	.
=874	=874
1r	.
=875	=875
4Fn 4c	ff
4r	.
2r	.
=876	=876
1r	.
=877	=877
1r	.
=878	=878
[1G	.
=879	=879
(2G]	p
!LO:TX:b:i:t=cresc.	!
2F#	.
=880	=880
2G)	.
(2G	.
=881	=881
4Fn) 4c	f
4r	.
2r	.
=882	=882
1r	.
=883	=883
4Fn 4c	ff
4r	.
2r	.
=884	=884
1r	.
=885	=885
1r	.
=886	=886
[1G	.
=887	=887
2G]	p
(2F#X	.
=888	=888
!!linebreak:original
2G)	.
!LO:TX:b:i:t=cresc.	!
(2G	.
=889	=889
2c)	.
([2B-X	.
=890	=890
2B-]	.
[2d-X	.
=891	=891
1d-]	.
=892	=892
2c)	sf
[2Bn	.
=893	=893
2B]	p
4B	.
4B	.
=894	=894
2r	.
!LO:TX:b:i:t=cresc.	!
4c	.
4c	.
=895	=895
2r	.
4c	.
4c	.
=896	=896
2r	.
4B	.
4B	.
=897	=897
2r	.
8BL	.
8B	.
8B	.
8BJ	.
=898	=898
2r	.
2c	.
=899	=899
2r	.
2c	.
=900	=900
!!linebreak:original
2r	.
2B	.
=901	=901
2B	.
!LO:TX:b:i:t=piu cresc.	!
2e	.
=902	=902
2e	.
2e	.
=903	=903
2fn	.
2f	.
=904	=904
2G 2fn	.
2G 2f	.
=905	=905
4G' 4e	.
8r	ff
8E'	.
4E'	.
8r	.
8E'	.
=906	=906
!LO:TX:b:i:t=sempre.	!
4E'	.
8r	.
8E'	.
4Fn'	ff
8r	.
8F'	.
=907	=907
4E'	.
8r	.
8E'	.
4E'	.
8r	.
8E'	.
=908	=908
4E'	.
8r	.
8E'	.
4Fn'	.
8r	.
8F'	.
=909	=909
!!linebreak:original
4E'	.
8r	.
8E'	.
4E'	.
8r	.
8D'	.
=910	=910
4C'	.
8r	.
8D'	.
4E'	.
8r	.
8E'	.
=911	=911
4E'	.
8r	.
8E'	.
4F#X'	.
8r	.
8F#'	.
=912	=912
4F#X'	.
8r	.
8F#'	.
4F#'	.
8r	.
8F#'	.
=913	=913
4F#'	.
8r	.
8B'	.
4B'	.
8r	.
8B'	.
=914	=914
4A'	.
8r	.
8A'	.
4B'	.
8r	.
8e'	.
=915	=915
!!linebreak:original
4e'	.
8r	.
8e'	.
4d'	.
8r	.
8d'	.
=916	=916
4c'	.
8r	.
8f#'	.
4f#'	.
8r	.
8f#'	.
=917	=917
4e'	sf
!LO:TX:a:B:t=Piu presto	!
8r	.
8G'	.
4A'	.
8r	.
8c'	.
=918	=918
4B	.
4r	.
2r	.
=919	=919
4G'	.
8r	sf
8G'	.
4A'	.
8r	.
8c'	.
=920	=920
4B	.
4r	.
2r	.
=921	=921
4G' 4B	sf
8r	.
8G' 8B	.
4G' 4B	.
8r	.
8A'	.
=922	=922
!!linebreak:original
4G	.
4r	.
2r	.
=923	=923
4G' 4B	.
8r	sf
8G' 8B	.
4G' 4B	.
8r	.
8A'	.
=924	=924
4G	.
4r	.
4r	.
8r	.
8e	.
=925	=925
4e	.
4r	sf
4r	.
8r	.
8d#X	.
=926	=926
4e	.
4r	sf
4r	.
8r	.
8F#	.
=927	=927
4G	.
4r	sf
4r	.
8r	.
!LO:TX:b:i:t=sempre.	!
8F#	.
=928	=928
4G	.
4r	.
4r	.
8r	.
8G	ff
=929	=929
!!linebreak:original
4A	.
4r	.
4r	.
8r	.
8A	.
=930	=930
4G'	.
8r	.
8B'	.
4A'	.
8r	.
8c#X'	.
=931	=931
4B'	.
8r	.
8d'	.
4cn'	.
8r	.
8e'	.
=932	=932
4d'	.
8r	.
8f#X'	.
4e'	.
8r	.
8f#'	.
=933	=933
4e'	.
8r	.
8a'	.
4g'	.
8r	.
8a'	.
=934	=934
4g'	.
8r	.
8b'	.
4b'	.
8r	.
8b'	.
=935	=935
!!linebreak:original
4b'	.
8r	.
8B'	.
4B'	.
8r	.
8B'	.
=936	=936
4B'	.
8r	.
8d#X'	.
4e'	.
8r	.
8d#'	.
=937	=937
4e'	.
8r	.
8d#X'	.
4e'	.
8r	.
8d#'	.
=938	=938
4e	.
4r	.
4B 4a	.
4r	.
=939	=939
4B 4g	.
4r	.
4B 4f#	.
4r	.
=940	=940
4B 4e	.
4r	.
2r	.
=941	=941
4B 4d#X	.
4r	.
2r	.
=942	=942
4E	.
4r	.
2r	.
==	==
*-	*-
!!!RDF**kern: > = above
!!!RDF**kern: < = below
